app/dist/common/images/tjx-cos.svg

<svg height="18" width="18" xmlns="http://www.w3.org/2000/svg"><path d="m0 0h18v18h-18z" fill="#c31230"/><path d="m3 7v-1h5v1h-2v5h-1v-5zm7-1h-1v3.457c0 1.238-.527 1.484-.974 1.526-.08.008-.585.029-1.026.017v.87c.276.118.466.13.788.13 1.364 0 2.212-.79 2.212-3.053zm3.788 0h1.212l-1.325 2.099 1.325 1.901h-1.212l-.69-.988-1.885 2.988h-1.213l2.463-3.901-1.463-2.099h1.212l.827 1.186z" fill="#fff"/></svg>

<!-- by TradingView --><svg width="18" height="18" xmlns="http://www.w3.org/2000/svg"><path fill="#C31230" d="M0 0h18v18H0z"/><path d="M3 7V6h5v1H6v5H5V7H3zm7-1H9v3.457c0 1.238-.527 1.484-.974 1.526-.08.008-.585.029-1.026.017v.87c.276.118.466.13.788.13C9.152 12 10 11.21 10 8.947V6zm3.788 0H15l-1.325 2.099L15 10h-1.212l-.69-.988L11.213 12H10l2.463-3.901L11 6h1.212l.827 1.186L13.788 6z" fill="#fff"/></svg>
